X: 42244
T: We'll All Away To Sunniside
R: reel
M: 4/4
K: Cmajor
f|eccf ecgc|ecgc Af~f2|eccf ecgA|(3Bcd cB G3:|
|:B|AcBd cedf|egge c2BG|AcBd cedA|(3Bcd cB G3:|

